svgs/light-theme/merge-window.svg

<?xml version="1.0" encoding="UTF-8" standalone="no"?>
<!-- Uploaded to: SVG Repo, www.svgrepo.com, Generator: SVG Repo Mixer Tools -->

<svg
   width="800px"
   height="800px"
   viewBox="0 0 24 24"
   fill="none"
   version="1.1"
   id="svg3"
   sodipodi:docname="merge-window.svg"
   inkscape:version="1.4 (86a8ad7, 2024-10-11)"
   xmlns:inkscape="http://www.inkscape.org/namespaces/inkscape"
   xmlns:sodipodi="http://sodipodi.sourceforge.net/DTD/sodipodi-0.dtd"
   xmlns="http://www.w3.org/2000/svg"
   xmlns:svg="http://www.w3.org/2000/svg">
  <defs
     id="defs3" />
  <sodipodi:namedview
     id="namedview3"
     pagecolor="#ffffff"
     bordercolor="#000000"
     borderopacity="0.25"
     inkscape:showpageshadow="2"
     inkscape:pageopacity="0.0"
     inkscape:pagecheckerboard="0"
     inkscape:deskcolor="#d1d1d1"
     inkscape:zoom="2.2175"
     inkscape:cx="398.8726"
     inkscape:cy="400"
     inkscape:window-width="3840"
     inkscape:window-height="2036"
     inkscape:window-x="-12"
     inkscape:window-y="-12"
     inkscape:window-maximized="1"
     inkscape:current-layer="svg3" />
  <g
     id="g1"
     transform="matrix(1.1428571,0,0,1.1428571,-1.7142852,-1.7142852)">
    <path
       d="M 19.2,1.5 H 4.8 C 3.92478,1.5 3.085416,1.847676 2.466552,2.466552 1.847676,3.085416 1.5,3.92478 1.5,4.8 V 12 c 0,0.23868 0.094824,0.46764 0.263604,0.63636 C 1.932384,12.8052 2.161308,12.9 2.4,12.9 2.638692,12.9 2.867616,12.8052 3.036396,12.63636 3.205176,12.46764 3.3,12.23868 3.3,12 V 4.8 C 3.3,4.402176 3.45804,4.020648 3.739344,3.739344 4.020648,3.45804 4.402176,3.3 4.8,3.3 h 14.4 c 0.3978,0 0.7794,0.15804 1.06068,0.439344 C 20.54196,4.020648 20.7,4.402176 20.7,4.8 v 14.4 c 0,0.3978 -0.15804,0.7794 -0.43932,1.06068 C 19.9794,20.54196 19.5978,20.7 19.2,20.7 H 12 c -0.23868,0 -0.46764,0.0948 -0.63636,0.26364 C 11.1948,21.13236 11.1,21.36132 11.1,21.6 c 0,0.23868 0.0948,0.46764 0.26364,0.63636 C 11.53236,22.4052 11.76132,22.5 12,22.5 h 7.2 c 0.87516,0 1.71456,-0.34764 2.3334,-0.9666 C 22.15236,20.91456 22.5,20.07516 22.5,19.2 V 4.8 C 22.5,3.92478 22.15236,3.085416 21.5334,2.466552 20.91456,1.847676 20.07516,1.5 19.2,1.5 Z"
       fill="#000000"
       id="path1"
       style="fill:#4d4d4d;stroke-width:1.2" />
    <path
       d="m 11.21,13.19 c 0.0917,0.0391 0.1903,0.0595 0.29,0.06 h 4 c 0.1989,0 0.3897,-0.079 0.5303,-0.2196 C 16.171,12.8897 16.25,12.6989 16.25,12.5 16.25,12.3011 16.171,12.1104 16.0303,11.9697 15.8897,11.829 15.6989,11.75 15.5,11.75 H 13.31 L 16.53,8.53003 C 16.6625,8.38785 16.7346,8.19981 16.7312,8.00551 16.7277,7.81121 16.649,7.62582 16.5116,7.48841 16.3742,7.35099 16.1888,7.27228 15.9945,7.26885 15.8002,7.26543 15.6122,7.33755 15.47,7.47003 L 12.25,10.69 V 8.50003 C 12.25,8.30112 12.171,8.11035 12.0303,7.9697 11.8897,7.82905 11.6989,7.75003 11.5,7.75003 c -0.1989,0 -0.3897,0.07902 -0.5303,0.21967 C 10.829,8.11035 10.75,8.30112 10.75,8.50003 V 12.5 c 5e-4,0.0997 0.0209,0.1983 0.06,0.29 0.0357,0.0906 0.0896,0.1728 0.1584,0.2416 0.0689,0.0688 0.1511,0.1227 0.2416,0.1584 z"
       fill="#000000"
       id="path2"
       style="fill:#4d4d4d" />
    <path
       d="M 8,14.25 H 5 C 4.53668,14.2526 4.09309,14.4378 3.76546,14.7655 3.43784,15.0931 3.25263,15.5367 3.25,16 v 3 c 0.00263,0.4633 0.18784,0.9069 0.51546,1.2345 C 4.09309,20.5622 4.53668,20.7474 5,20.75 H 8 C 8.46332,20.7474 8.90691,20.5622 9.23454,20.2345 9.56216,19.9069 9.74738,19.4633 9.75,19 V 16 C 9.74738,15.5367 9.56216,15.0931 9.23454,14.7655 8.90691,14.4378 8.46332,14.2526 8,14.25 Z M 8.25,19 c 0,0.0663 -0.02634,0.1299 -0.07322,0.1768 C 8.12989,19.2237 8.0663,19.25 8,19.25 H 5 C 4.9337,19.25 4.87011,19.2237 4.82322,19.1768 4.77634,19.1299 4.75,19.0663 4.75,19 v -3 c 0,-0.0663 0.02634,-0.1299 0.07322,-0.1768 C 4.87011,15.7763 4.9337,15.75 5,15.75 h 3 c 0.0663,0 0.12989,0.0263 0.17678,0.0732 C 8.22366,15.8701 8.25,15.9337 8.25,16 Z"
       fill="#000000"
       id="path3"
       style="fill:#4d4d4d" />
  </g>
</svg>

<?xml version="1.0" encoding="UTF-8" standalone="no"?>
<!-- Uploaded to: SVG Repo, www.svgrepo.com, Generator: SVG Repo Mixer Tools -->

<svg
   width="800px"
   height="800px"
   viewBox="0 0 24 24"
   fill="none"
   version="1.1"
   id="svg3"
   sodipodi:docname="merge-window.svg"
   inkscape:version="1.4 (86a8ad7, 2024-10-11)"
   xmlns:inkscape="http://www.inkscape.org/namespaces/inkscape"
   xmlns:sodipodi="http://sodipodi.sourceforge.net/DTD/sodipodi-0.dtd"
   xmlns="http://www.w3.org/2000/svg"
   xmlns:svg="http://www.w3.org/2000/svg">
  <defs
     id="defs3" />
  <sodipodi:namedview
     id="namedview3"
     pagecolor="#ffffff"
     bordercolor="#000000"
     borderopacity="0.25"
     inkscape:showpageshadow="2"
     inkscape:pageopacity="0.0"
     inkscape:pagecheckerboard="0"
     inkscape:deskcolor="#d1d1d1"
     inkscape:zoom="2.2175"
     inkscape:cx="399.32356"
     inkscape:cy="400"
     inkscape:window-width="3840"
     inkscape:window-height="2036"
     inkscape:window-x="-12"
     inkscape:window-y="-12"
     inkscape:window-maximized="1"
     inkscape:current-layer="svg3" />
  <path
     d="M 19.2,1.5 H 4.8 C 3.92478,1.5 3.085416,1.847676 2.466552,2.466552 1.847676,3.085416 1.5,3.92478 1.5,4.8 V 12 c 0,0.23868 0.094824,0.46764 0.263604,0.63636 C 1.932384,12.8052 2.161308,12.9 2.4,12.9 2.638692,12.9 2.867616,12.8052 3.036396,12.63636 3.205176,12.46764 3.3,12.23868 3.3,12 V 4.8 C 3.3,4.402176 3.45804,4.020648 3.739344,3.739344 4.020648,3.45804 4.402176,3.3 4.8,3.3 h 14.4 c 0.3978,0 0.7794,0.15804 1.06068,0.439344 C 20.54196,4.020648 20.7,4.402176 20.7,4.8 v 14.4 c 0,0.3978 -0.15804,0.7794 -0.43932,1.06068 C 19.9794,20.54196 19.5978,20.7 19.2,20.7 H 12 c -0.23868,0 -0.46764,0.0948 -0.63636,0.26364 C 11.1948,21.13236 11.1,21.36132 11.1,21.6 c 0,0.23868 0.0948,0.46764 0.26364,0.63636 C 11.53236,22.4052 11.76132,22.5 12,22.5 h 7.2 c 0.87516,0 1.71456,-0.34764 2.3334,-0.9666 C 22.15236,20.91456 22.5,20.07516 22.5,19.2 V 4.8 C 22.5,3.92478 22.15236,3.085416 21.5334,2.466552 20.91456,1.847676 20.07516,1.5 19.2,1.5 Z"
     fill="#000000"
     id="path1"
     style="stroke-width:1.2" />
  <path
     d="M11.21 13.19C11.3017 13.2291 11.4003 13.2495 11.5 13.25H15.5C15.6989 13.25 15.8897 13.171 16.0303 13.0304C16.171 12.8897 16.25 12.6989 16.25 12.5C16.25 12.3011 16.171 12.1104 16.0303 11.9697C15.8897 11.829 15.6989 11.75 15.5 11.75H13.31L16.53 8.53003C16.6625 8.38785 16.7346 8.19981 16.7312 8.00551C16.7277 7.81121 16.649 7.62582 16.5116 7.48841C16.3742 7.35099 16.1888 7.27228 15.9945 7.26885C15.8002 7.26543 15.6122 7.33755 15.47 7.47003L12.25 10.69V8.50003C12.25 8.30112 12.171 8.11035 12.0303 7.9697C11.8897 7.82905 11.6989 7.75003 11.5 7.75003C11.3011 7.75003 11.1103 7.82905 10.9697 7.9697C10.829 8.11035 10.75 8.30112 10.75 8.50003V12.5C10.7505 12.5997 10.7709 12.6983 10.81 12.79C10.8457 12.8806 10.8996 12.9628 10.9684 13.0316C11.0373 13.1004 11.1195 13.1543 11.21 13.19Z"
     fill="#000000"
     id="path2" />
  <path
     d="M8 14.25H5C4.53668 14.2526 4.09309 14.4378 3.76546 14.7655C3.43784 15.0931 3.25263 15.5367 3.25 16V19C3.25263 19.4633 3.43784 19.9069 3.76546 20.2345C4.09309 20.5622 4.53668 20.7474 5 20.75H8C8.46332 20.7474 8.90691 20.5622 9.23454 20.2345C9.56216 19.9069 9.74738 19.4633 9.75 19V16C9.74738 15.5367 9.56216 15.0931 9.23454 14.7655C8.90691 14.4378 8.46332 14.2526 8 14.25ZM8.25 19C8.25 19.0663 8.22366 19.1299 8.17678 19.1768C8.12989 19.2237 8.0663 19.25 8 19.25H5C4.9337 19.25 4.87011 19.2237 4.82322 19.1768C4.77634 19.1299 4.75 19.0663 4.75 19V16C4.75 15.9337 4.77634 15.8701 4.82322 15.8232C4.87011 15.7763 4.9337 15.75 5 15.75H8C8.0663 15.75 8.12989 15.7763 8.17678 15.8232C8.22366 15.8701 8.25 15.9337 8.25 16V19Z"
     fill="#000000"
     id="path3" />
</svg>
